packages/components/Atoms/Icon/assets/img/rpl_icon_document_transparent.svg

<svg width="15" height="20" overflow="visible" xmlns="http://www.w3.org/2000/svg"><path fill-rule="evenodd" clip-rule="evenodd" d="M13 17v1H2V2h6v4a1 1 0 001 1h4v10zM10 2.824L12.176 5H10V2.824zm3 .173L12.003 2l-2-2H1a1 1 0 00-1 1v18a1 1 0 001 1h13a1 1 0 001-1V4.997l-2-2z" fill="inherit"/></svg>

<svg width="15" height="20" viewBox="0 0 15 20" overflow="visible" xmlns="http://www.w3.org/2000/svg">
  <path fill-rule="evenodd" clip-rule="evenodd" d="M13 17V18H2V2H8V6C8 6.553 8.447 7 9 7H13V16V17ZM10 2.824L12.176 5H10V2.824ZM13 2.997L12.003 2L10.003 0H10H8H7.176H1C0.447 0 0 0.447 0 1V19C0 19.553 0.447 20 1 20H14C14.553 20 15 19.553 15 19V17V16V7.824V7V5V4.997L13 2.997Z"
    fill="inherit" />
</svg>
